app/img/technology/ic_deployment.svg

<svg width="110" height="90" viewBox="0 0 110 90" fill="none" xmlns="http://www.w3.org/2000/svg">
    <g filter="url(#filter0_i)">
        <rect width="89" height="79" rx="10" fill="#022AF0"/>
    </g>
    <rect x="0.5" y="0.5" width="88" height="78" rx="9.5" stroke="#FAFAFA" stroke-opacity="0.1"/>
    <rect x="9" y="13" width="50" height="8" rx="4" fill="#131DAA" fill-opacity="0.37"/>
    <rect x="9.5" y="13.5" width="49" height="7" rx="3.5" stroke="#80FF9F" stroke-opacity="0.5"/>
    <rect x="71" y="13" width="10" height="8" rx="4" fill="#022AF0" fill-opacity="0.36"/>
    <rect x="71.5" y="13.5" width="9" height="7" rx="3.5" stroke="#80FF9F" stroke-opacity="0.5"/>
    <rect x="9" y="34" width="41" height="13" rx="5" fill="#0A1193" fill-opacity="0.4"/>
    <rect x="9.5" y="34.5" width="40" height="12" rx="4.5" stroke="#80FF9F" stroke-opacity="0.5"/>
    <rect x="9" y="52" width="41" height="13" rx="5" fill="#0A1193" fill-opacity="0.4"/>
    <rect x="9.5" y="52.5" width="40" height="12" rx="4.5" stroke="#80FF9F" stroke-opacity="0.5"/>
    <rect width="26" height="31" rx="5" transform="matrix(-1 0 0 1 79 34)" fill="#131DAA" fill-opacity="0.23"/>
    <rect x="-0.5" y="0.5" width="25" height="30" rx="4.5" transform="matrix(-1 0 0 1 78 34)" stroke="#80FF9F"
          stroke-opacity="0.5"/>
    <path d="M73.1325 83.7077C72.6694 83.7077 72.2525 83.3375 72.2525 82.8286C72.2525 81.9958 72.3452 80.5615 72.6231 78.9421L70.122 76.4437C66.4632 80.7466 66.0463 86.9001 66 89.1209C66 89.5836 66.3705 90 66.88 90C69.1031 89.9537 75.263 89.5373 79.5703 85.8822L77.0693 83.3838C75.402 83.6151 73.9662 83.6614 73.1325 83.7077Z"
          fill="url(#paint0_linear)"/>
    <path d="M100.135 73.8528C108.518 64.9695 110 55.8549 110 50.673C110 48.082 107.916 46 105.322 46C100.135 46 91.0108 47.4805 82.1183 55.9012L81.8867 55.8086C78.1815 54.2355 73.9205 55.0221 71.0953 57.8906L67.2048 61.7771C66.2785 62.7024 66.5564 64.2292 67.7143 64.7382L74.2447 67.7455L72.0679 71.2156C71.5121 72.0484 71.6511 73.1588 72.3458 73.8528L82.072 83.5689C82.7667 84.2629 83.8783 84.4017 84.7119 83.8465L88.2319 81.6257L91.2424 88.1493C91.7981 89.306 93.3265 89.5836 94.2065 88.6583L98.0507 84.8181C100.876 81.9958 101.71 77.693 100.135 74.0379V73.8528ZM94.4844 68.3007C90.7329 68.3007 87.6761 65.2471 87.6761 61.4995C87.6761 57.7518 90.7329 54.6982 94.4844 54.6982C98.2359 54.6982 101.293 57.7518 101.293 61.4995C101.293 65.2471 98.2359 68.3007 94.4844 68.3007Z"
          fill="url(#paint1_linear)"/>
    <path d="M94.484 56.8728C93.6967 56.8728 93.002 57.5205 93.002 58.3533C93.002 59.1399 93.6504 59.8339 94.484 59.8339C95.4103 59.8339 96.1977 60.5741 96.1977 61.5457C96.1977 62.3323 96.8461 63.0263 97.6798 63.0263C98.5134 63.0263 99.1155 62.286 99.1155 61.4995C99.1155 58.9548 97.0314 56.8728 94.484 56.8728Z"
          fill="url(#paint2_linear)"/>
    <defs>
        <filter id="filter0_i" x="0" y="0" width="89" height="83" filterUnits="userSpaceOnUse"
                color-interpolation-filters="sRGB">
            <feFlood flood-opacity="0" result="BackgroundImageFix"/>
            <feBlend mode="normal" in="SourceGraphic" in2="BackgroundImageFix" result="shape"/>
            <feColorMatrix in="SourceAlpha" type="matrix" values="0 0 0 0 0 0 0 0 0 0 0 0 0 0 0 0 0 0 127 0"
                           result="hardAlpha"/>
            <feOffset dy="4"/>
            <feGaussianBlur stdDeviation="15"/>
            <feComposite in2="hardAlpha" operator="arithmetic" k2="-1" k3="1"/>
            <feColorMatrix type="matrix" values="0 0 0 0 0.5 0 0 0 0 1 0 0 0 0 0.625065 0 0 0 1 0"/>
            <feBlend mode="normal" in2="shape" result="effect1_innerShadow"/>
        </filter>
        <linearGradient id="paint0_linear" x1="72.7852" y1="76.4437" x2="72.7852" y2="90"
                        gradientUnits="userSpaceOnUse">
            <stop stop-color="#7BF9AC"/>
            <stop offset="1" stop-color="#61D9DF"/>
        </linearGradient>
        <linearGradient id="paint1_linear" x1="88.3252" y1="46" x2="88.3252" y2="89.2121"
                        gradientUnits="userSpaceOnUse">
            <stop stop-color="#7BF9AC"/>
            <stop offset="1" stop-color="#61D9DF"/>
        </linearGradient>
        <linearGradient id="paint2_linear" x1="96.0587" y1="56.8728" x2="96.0587" y2="63.0263"
                        gradientUnits="userSpaceOnUse">
            <stop stop-color="#7BF9AC"/>
            <stop offset="1" stop-color="#61D9DF"/>
        </linearGradient>
    </defs>
</svg>

<svg width="110" height="90" fill="none" xmlns="http://www.w3.org/2000/svg"><g filter="url(#a)"><rect width="89" height="79" rx="10" fill="#022AF0"/></g><rect x=".5" y=".5" width="88" height="78" rx="9.5" stroke="#FAFAFA" stroke-opacity=".1"/><rect x="9" y="13" width="50" height="8" rx="4" fill="#131DAA" fill-opacity=".37"/><rect x="9.5" y="13.5" width="49" height="7" rx="3.5" stroke="#80FF9F" stroke-opacity=".5"/><rect x="71" y="13" width="10" height="8" rx="4" fill="#022AF0" fill-opacity=".36"/><rect x="71.5" y="13.5" width="9" height="7" rx="3.5" stroke="#80FF9F" stroke-opacity=".5"/><rect x="9" y="34" width="41" height="13" rx="5" fill="#0A1193" fill-opacity=".4"/><rect x="9.5" y="34.5" width="40" height="12" rx="4.5" stroke="#80FF9F" stroke-opacity=".5"/><rect x="9" y="52" width="41" height="13" rx="5" fill="#0A1193" fill-opacity=".4"/><rect x="9.5" y="52.5" width="40" height="12" rx="4.5" stroke="#80FF9F" stroke-opacity=".5"/><rect width="26" height="31" rx="5" transform="matrix(-1 0 0 1 79 34)" fill="#131DAA" fill-opacity=".23"/><rect x="-.5" y=".5" width="25" height="30" rx="4.5" transform="matrix(-1 0 0 1 78 34)" stroke="#80FF9F" stroke-opacity=".5"/><path d="M73.132 83.708a.879.879 0 0 1-.88-.88c0-.832.093-2.267.371-3.886l-2.501-2.498C66.463 80.747 66.046 86.9 66 89.12c0 .463.37.879.88.879 2.223-.046 8.383-.463 12.69-4.118l-2.5-2.498c-1.668.231-3.104.277-3.938.324Z" fill="url(#b)"/><path d="M100.135 73.853C108.518 64.97 110 55.855 110 50.673A4.662 4.662 0 0 0 105.322 46c-5.187 0-14.311 1.48-23.204 9.901l-.231-.092c-3.706-1.573-7.966-.787-10.792 2.082l-3.89 3.886c-.927.925-.649 2.452.51 2.961l6.53 3.008-2.177 3.47c-.556.832-.417 1.943.278 2.637l9.726 9.716c.695.694 1.806.833 2.64.278l3.52-2.221 3.01 6.523c.556 1.157 2.084 1.435 2.965.51l3.844-3.84c2.825-2.823 3.659-7.126 2.084-10.781v-.185Zm-5.65-5.552c-3.752 0-6.809-3.054-6.809-6.802 0-3.747 3.057-6.8 6.808-6.8 3.752 0 6.809 3.053 6.809 6.8 0 3.748-3.057 6.802-6.809 6.802Z" fill="url(#c)"/><path d="M94.484 56.873c-.787 0-1.482.648-1.482 1.48 0 .787.648 1.48 1.482 1.48.926 0 1.714.741 1.714 1.713 0 .786.648 1.48 1.482 1.48.833 0 1.435-.74 1.435-1.527 0-2.544-2.084-4.626-4.631-4.626Z" fill="url(#d)"/><defs><linearGradient id="b" x1="72.785" y1="76.444" x2="72.785" y2="90" gradientUnits="userSpaceOnUse"><stop stop-color="#7BF9AC"/><stop offset="1" stop-color="#61D9DF"/></linearGradient><linearGradient id="c" x1="88.325" y1="46" x2="88.325" y2="89.212" gradientUnits="userSpaceOnUse"><stop stop-color="#7BF9AC"/><stop offset="1" stop-color="#61D9DF"/></linearGradient><linearGradient id="d" x1="96.059" y1="56.873" x2="96.059" y2="63.026" gradientUnits="userSpaceOnUse"><stop stop-color="#7BF9AC"/><stop offset="1" stop-color="#61D9DF"/></linearGradient><filter id="a" x="0" y="0" width="89" height="83" filterUnits="userSpaceOnUse" color-interpolation-filters="sRGB"><feFlood flood-opacity="0" result="BackgroundImageFix"/><feBlend in="SourceGraphic" in2="BackgroundImageFix" result="shape"/><feColorMatrix in="SourceAlpha" values="0 0 0 0 0 0 0 0 0 0 0 0 0 0 0 0 0 0 127 0" result="hardAlpha"/><feOffset dy="4"/><feGaussianBlur stdDeviation="15"/><feComposite in2="hardAlpha" operator="arithmetic" k2="-1" k3="1"/><feColorMatrix values="0 0 0 0 0.5 0 0 0 0 1 0 0 0 0 0.625065 0 0 0 1 0"/><feBlend in2="shape" result="effect1_innerShadow"/></filter></defs></svg>
